X: 13731
T: Forest Baby
R: jig
M: 6/8
K: Dmajor
BdG FBB|ded AED|~E3 FAB|BAE FDE|
BdG FBB|ded A2F|E2E FAB-|B6||
BdG FBB|ded A2F|~E3 FAB|BAE FDE|
BdG FBB|ded AED|~E3 FAB-|B3-BAG||
e2f BGe-|e2fB2d|dcA- A2B|eB/c/d cAG|
e2f BGe-|e2fB2G|EAB- BcA|GG/A/B dzz||
e2f BGe-|e2fB2d|dcA-A2B|eB/c/d cAG|
edf BGe-|e2f B2G|A6-|A6||

